icon-themes/sifr_svg/cmd/lc_zoom.svg

<svg viewBox="0 0 24 24" xmlns="http://www.w3.org/2000/svg"><path d="m4.59375 3c-.8836 0-1.59375.73199-1.59375 1.625v14.75c0 .89301.71015 1.625 1.59375 1.625h14.8125c.8836 0 1.59375-.73199 1.59375-1.625v-14.75c0-.89301-.71015-1.625-1.59375-1.625zm6.90625 3c3.02794 0 5.5 2.4750401 5.5 5.5 0 1.14361-.42817 2.14884-1.03125 3.03125l1.75 1.75s.72571.74303 0 1.46875c-.72572.7257-1.4375-.03125-1.4375-.03125l-1.75-1.75c-.88229.60343-1.88652 1.03125-3.03125 1.03125-3.02794 0-5.5-2.47504-5.5-5.5 0-3.0249599 2.47206-5.5 5.5-5.5zm0 2c-1.94828 0-3.5 1.5544001-3.5 3.5 0 1.9456 1.55172 3.5 3.5 3.5s3.5-1.5544 3.5-3.5c0-1.9455999-1.55172-3.5-3.5-3.5z" fill="#555753"/></svg>

<svg xmlns="http://www.w3.org/2000/svg" viewBox="0 0 24 24">
 <path
     style="fill:#555753"
     d="M 4.59375 3 C 3.71015 3 3 3.73199 3 4.625 L 3 19.375 C 3 20.26801 3.71015 21 4.59375 21 L 19.40625 21 C 20.28985 21 21 20.26801 21 19.375 L 21 4.625 C 21 3.73199 20.28985 3 19.40625 3 L 4.59375 3 z M 11.5 6 C 14.52794 6 17 8.4750401 17 11.5 C 17 12.64361 16.57183 13.64884 15.96875 14.53125 L 17.71875 16.28125 C 17.71875 16.28125 18.44446 17.02428 17.71875 17.75 C 16.99303 18.4757 16.28125 17.71875 16.28125 17.71875 L 14.53125 15.96875 C 13.64896 16.57218 12.64473 17 11.5 17 C 8.47206 17 6 14.52496 6 11.5 C 6 8.4750401 8.47206 6 11.5 6 z M 11.5 8 C 9.55172 8 8 9.5544001 8 11.5 C 8 13.4456 9.55172 15 11.5 15 C 13.44828 15 15 13.4456 15 11.5 C 15 9.5544001 13.44828 8 11.5 8 z "
     />
 </svg>
